icons/icn_x5.svg

<svg width="24" xmlns="http://www.w3.org/2000/svg" height="24" id="screenshot-07e9d773-d858-80af-8006-8f4642f22f96" viewBox="0 0 24 24" xmlns:xlink="http://www.w3.org/1999/xlink" fill="none" version="1.1"><g id="shape-07e9d773-d858-80af-8006-8f4642f22f96"><g class="frame-container-wrapper"><g class="frame-container-blur"><g class="frame-container-shadows"><g fill="none"><g class="fills" id="fills-07e9d773-d858-80af-8006-8f4642f22f96"><rect rx="0" ry="0" x="0" y="0" width="24" height="24.000000000000455" transform="matrix(1, 0, 0, 1, 0, 0)" class="frame-background"/></g><g class="frame-children"><g id="shape-07e9d773-d858-80af-8006-8f460d21cd5c" rx="0" ry="0"><g id="shape-07e9d773-d858-80af-8006-8f45be787ae6" style="opacity: 1;"><g class="fills" id="fills-07e9d773-d858-80af-8006-8f45be787ae6"><path d="M3.56032395362854,7.888916015625C3.39235520362854,7.915283203125,3.23732590675354,7.99462890625,3.11745285987854,8.115478515625C2.96608567237854,8.265869140625,2.88210129737854,8.4698486328125,2.88210129737854,8.6824951171875C2.88210129737854,8.8956298828125,2.96608567237854,9.099609375,3.11745285987854,9.25L6.367208480834961,12.498046875L3.11745285987854,15.748291015625C2.80641770362854,16.0611572265625,2.80641770362854,16.5662841796875,3.11745285987854,16.8792724609375C3.26759934425354,17.030029296875,3.47170090675354,17.115478515625,3.68483567237854,17.115478515625C3.89894700050354,17.115478515625,4.103048324584961,17.030029296875,4.253438949584961,16.8792724609375L7.499532699584961,13.631103515625L10.749532699584961,16.8792724609375C11.062276840209961,17.190185546875,11.567892074584961,17.190185546875,11.880636215209961,16.8792724609375C12.191427230834961,16.5662841796875,12.191427230834961,16.0611572265625,11.880636215209961,15.748291015625L8.632833480834961,12.498046875L11.880636215209961,9.25C12.031026840209961,9.099609375,12.115987777709961,8.8956298828125,12.115987777709961,8.6824951171875C12.115987777709961,8.4698486328125,12.031026840209961,8.265869140625,11.880636215209961,8.115478515625C11.567892074584961,7.8045654296875,11.062276840209961,7.8045654296875,10.749532699584961,8.115478515625L7.499532699584961,11.3653564453125L4.253438949584961,8.115478515625C4.072286605834961,7.932861328125,3.81398606300354,7.848876953125,3.56032395362854,7.888916015625Z" style="display: inline; stroke-width: 0.424392; stroke-linecap: round; stroke-linejoin: bevel; fill: rgb(0, 0, 0); fill-opacity: 1;"/></g></g><g id="shape-07e9d773-d858-80af-8006-8f45be78e58d" style="opacity: 1;"><g class="fills" id="fills-07e9d773-d858-80af-8006-8f45be78e58d"><path d="M16.22951316833496,12.6240234375L14.980245590209961,12.318115234375L15.494161605834961,7.55224609375L20.60524559020996,7.55224609375L20.60524559020996,8.8804931640625L16.79591941833496,8.8804931640625L16.53590965270996,11.204833984375C16.68361473083496,11.1180419921875,16.88722801208496,11.033203125,17.14748191833496,10.9505615234375C17.40773582458496,10.8638916015625,17.70583152770996,10.8204345703125,18.04006004333496,10.8204345703125C18.48659324645996,10.8204345703125,18.88625144958496,10.894287109375,19.23756980895996,11.0419921875C19.59377098083496,11.18505859375,19.89552879333496,11.3958740234375,20.14259910583496,11.673583984375C20.39015769958496,11.9466552734375,20.57839012145996,12.2811279296875,20.70827293395996,12.6761474609375C20.83962059020996,13.06640625,20.90431785583496,13.507080078125,20.90431785583496,13.9974365234375C20.90431785583496,14.435791015625,20.83962059020996,14.845947265625,20.70827293395996,15.22802734375C20.58302879333496,15.6099853515625,20.39186668395996,15.9462890625,20.13625144958496,16.2374267578125C19.87965965270996,16.528076171875,19.55690574645996,16.7559814453125,19.16554832458496,16.920654296875C18.78005027770996,17.081298828125,18.32131004333496,17.16162109375,17.79250144958496,17.16162109375C17.39772605895996,17.16162109375,17.01759910583496,17.1053466796875,16.65285301208496,16.9921875C16.29225730895996,16.875,15.969503402709961,16.703857421875,15.683370590209961,16.478271484375C15.396261215209961,16.248046875,15.166524887084961,15.9661865234375,14.993185043334961,15.6317138671875C14.819601058959961,15.29296875,14.719015121459961,14.904541015625,14.693136215209961,14.4661865234375L16.22951316833496,14.4661865234375C16.26906394958496,14.7744140625,16.35329246520996,15.036865234375,16.48317527770996,15.2542724609375C16.61794090270996,15.4669189453125,16.79591941833496,15.6297607421875,17.01759910583496,15.742431640625C17.23903465270996,15.8553466796875,17.49464988708496,15.91162109375,17.78615379333496,15.91162109375C18.05006980895996,15.91162109375,18.27809715270996,15.865966796875,18.46901512145996,15.775146484375C18.65993309020996,15.6796875,18.81886863708496,15.544921875,18.94411277770996,15.3714599609375C19.07546043395996,15.193359375,19.17043113708496,14.9852294921875,19.23122215270996,14.746337890625C19.29591941833496,14.5078125,19.32887840270996,14.2430419921875,19.32887840270996,13.9522705078125C19.32887840270996,13.674072265625,19.29225730895996,13.4202880859375,19.21828269958496,13.1905517578125C19.14919090270996,12.9603271484375,19.04201316833496,12.7606201171875,18.89894676208496,12.5911865234375C18.76051902770996,12.421875,18.58449363708496,12.291748046875,18.37209129333496,12.2008056640625C18.15895652770996,12.1053466796875,17.91359519958496,12.057373046875,17.63576316833496,12.057373046875C17.26296043395996,12.057373046875,16.97609519958496,12.11181640625,16.77687644958496,12.2203369140625C16.58107566833496,12.3287353515625,16.39943504333496,12.4635009765625,16.22951316833496,12.6240234375Z" style="font-family: roboto; stroke-width: 1.73333; stroke-linejoin: round; font-weight: 500; white-space: pre; display: inline; font-size: 13.3333px; stroke-linecap: square; fill: rgb(0, 0, 0); fill-opacity: 1;"/></g></g></g></g></g></g></g></g></g></svg>

<svg fill="none" viewBox="0 0 24 24"><g class="frame-container-wrapper"><g class="frame-container-blur"><g class="frame-container-shadows"><g class="fills"><rect width="24" height="24" class="frame-background" rx="0" ry="0"/></g><g class="frame-children"><path fill="#000" d="M3.5603 7.889a.798.798 0 0 0-.4428.2265.7983.7983 0 0 0-.2354.567c0 .2131.084.4171.2354.5675l3.2497 3.248-3.2497 3.2503a.802.802 0 0 0 0 1.131.8012.8012 0 0 0 1.136 0l3.246-3.2482 3.25 3.2482a.8024.8024 0 0 0 1.1311 0 .8025.8025 0 0 0 0-1.131L8.6328 12.498l3.2478-3.248a.8027.8027 0 0 0 .2354-.5675.8024.8024 0 0 0-.2354-.567.8024.8024 0 0 0-1.131 0l-3.25 3.2499-3.2462-3.25a.8008.8008 0 0 0-.693-.2265Z" class="fills"/><path fill="#000" d="m16.2295 12.624-1.2493-.3059.514-4.7659h5.111v1.3283H16.796l-.26 2.3243c.1477-.0868.3513-.1716.6116-.2542.2602-.0867.5583-.1302.8926-.1302.4465 0 .8462.0739 1.1975.2216.3562.143.658.3539.905.6316.2476.273.4358.6075.5657 1.0025.1313.3903.196.831.196 1.3213 0 .4384-.0647.8485-.196 1.2306-.1253.382-.3164.7183-.572 1.0094-.2566.2907-.5794.5186-.9708.6833-.3854.1606-.8442.241-1.373.241-.3948 0-.7749-.0564-1.1396-.1695-.3606-.1172-.6834-.2883-.9695-.514-.2871-.2302-.5169-.512-.6902-.8465-.1736-.3387-.2742-.7272-.3-1.1655h1.5363c.0396.3082.1238.5707.2537.788.1347.2127.3127.3756.5344.4882.2214.113.477.1692.7686.1692.2639 0 .4919-.0456.6828-.1365a1.2897 1.2897 0 0 0 .4751-.4036c.1314-.1781.2263-.3863.2871-.6252.0647-.2385.0977-.5033.0977-.794 0-.2782-.0366-.532-.1106-.7617-.0691-.2303-.1763-.43-.3194-.5994-.1384-.1693-.3144-.2995-.5268-.3904-.2131-.0955-.4585-.1434-.7363-.1434-.3728 0-.6597.0544-.859.163-.1957.1083-.3774.2431-.5473.4036Z" class="fills" font-family="roboto" font-size="13.3333" font-weight="500" style="white-space:pre"/></g></g></g></g></svg>
